libs/ui/packages/crypto-icons/src/svg/ARN.svg

<svg width="24" height="24" viewBox="0 0 24 24" fill="none">
<path d="M8.81963 10.2015L12.0311 4.548C12.0371 4.5375 12.0491 4.53075 12.0911 4.548L15.1466 10.0988C15.061 10.1687 14.9922 10.2571 14.9456 10.3574C14.899 10.4577 14.8758 10.5672 14.8776 10.6778C14.8794 10.7884 14.9062 10.8971 14.9561 10.9958C15.0059 11.0945 15.0775 11.1807 15.1654 11.2477L12.3431 16.3387C12.2426 16.2905 12.1326 16.265 12.0211 16.2643C11.9096 16.2635 11.7993 16.2874 11.6981 16.3342L8.79338 11.16C8.91296 11.0304 8.98144 10.8618 8.98613 10.6855C8.99082 10.5093 8.9314 10.3373 8.81888 10.2015H8.81963ZM8.51213 11.352L11.4281 16.5458C11.3652 16.6245 11.3192 16.7154 11.2931 16.8127C8.93888 16.2487 7.47638 15.9 6.90413 15.7657C6.66211 15.4254 6.45031 15.0645 6.27113 14.6873L8.14013 11.3977C8.26594 11.4137 8.39375 11.3982 8.51213 11.3527V11.352ZM8.10788 9.93975L5.79263 5.81475C7.37063 4.977 9.32888 4.5375 11.6689 4.5L8.54738 9.9945C8.40963 9.93278 8.25656 9.91372 8.10788 9.93975ZM7.79288 10.0717C7.69666 10.1412 7.61874 10.2329 7.56582 10.3391C7.5129 10.4453 7.48656 10.5628 7.48907 10.6814C7.49157 10.8001 7.52285 10.9163 7.58022 11.0202C7.63758 11.1241 7.71931 11.2124 7.81838 11.2778L6.10088 14.3002C5.81552 13.5935 5.64585 12.8454 5.59838 12.0848L5.25113 6.54825C5.24467 6.44163 5.26391 6.33502 5.30724 6.23739C5.35057 6.13977 5.41673 6.05398 5.50013 5.98725L7.79288 10.0717ZM12.7429 16.8202C12.7178 16.7235 12.6731 16.6328 12.6116 16.554L15.4751 11.3888C15.5987 11.4135 15.7265 11.4074 15.8471 11.3708L17.7026 14.7413C17.5451 15.0653 17.3636 15.3772 17.1596 15.675L12.7429 16.8202ZM12.1871 17.7203C12.323 17.6895 12.4475 17.6213 12.5466 17.5233C12.6456 17.4253 12.7152 17.3015 12.7474 17.166L16.8394 16.1047C16.3447 16.7197 15.7529 17.2497 15.0874 17.6737L12.3701 19.4093C12.3135 19.4456 12.2518 19.4734 12.1871 19.4918V17.7203ZM11.8466 17.7203V19.5C11.7694 19.4825 11.6959 19.4518 11.6291 19.4093L8.91188 17.6737C8.27653 17.2688 7.70821 16.7673 7.22738 16.1873C7.96988 16.3635 9.32213 16.686 11.2841 17.1555C11.3441 17.4353 11.5646 17.6565 11.8466 17.721V17.7203ZM15.8741 9.96975C15.738 9.92272 15.5913 9.91543 15.4511 9.94875L12.4534 4.50225C14.7274 4.5525 16.6384 4.98675 18.1841 5.8035L15.8741 9.96975ZM16.1614 10.1505L18.4789 5.9715C18.5684 6.03753 18.6399 6.12488 18.6871 6.2256C18.7342 6.32632 18.7555 6.43723 18.7489 6.54825L18.4016 12.0855C18.3527 12.8655 18.1753 13.6321 17.8766 14.3542L16.1411 11.202C16.2131 11.1352 16.2709 11.0546 16.311 10.9651C16.3511 10.8755 16.3728 10.7787 16.3747 10.6806C16.3765 10.5824 16.3586 10.4849 16.322 10.3938C16.2853 10.3027 16.2307 10.22 16.1614 10.1505ZM11.9996 8.0505C11.8934 8.05219 11.792 8.09477 11.7164 8.16937C11.6409 8.24397 11.597 8.34485 11.5939 8.451V9.9165L9.42938 11.25L9.66113 11.7502L11.5939 11.1172V12.5828L11.0524 12.9825V13.3822L11.9996 13.1152L12.9469 13.3815V12.9818L12.4054 12.582V11.1165L14.3051 11.784L14.5699 11.25L12.4054 9.9165V8.451C12.4021 8.34511 12.3582 8.24453 12.2828 8.17011C12.2074 8.09569 12.1063 8.05313 12.0004 8.05125L11.9996 8.0505Z" fill="#0092B5"/>
</svg>

<svg width="24" height="24" viewBox="0 0 24 24" fill="none"><path fill="#0092b5" d="m8.82 10.202 3.211-5.654c.006-.01.018-.017.06 0l3.056 5.55a.732.732 0 0 0 .018 1.15l-2.822 5.09a.76.76 0 0 0-.645-.004L8.793 11.16a.73.73 0 0 0 .026-.959m-.308 1.15 2.916 5.194a.7.7 0 0 0-.135.267q-3.531-.846-4.389-1.047a7 7 0 0 1-.633-1.079l1.87-3.29a.76.76 0 0 0 .371-.044zM8.108 9.94 5.793 5.815Q8.16 4.557 11.669 4.5L8.547 9.995a.76.76 0 0 0-.44-.055m-.315.132a.733.733 0 0 0 .025 1.206L6.101 14.3a7.1 7.1 0 0 1-.503-2.215l-.347-5.537a.67.67 0 0 1 .25-.56zm4.95 6.748a.7.7 0 0 0-.131-.266l2.863-5.165a.8.8 0 0 0 .372-.018l1.856 3.37a7 7 0 0 1-.543.934zm-.556.9a.75.75 0 0 0 .56-.554l4.092-1.061a7.2 7.2 0 0 1-1.752 1.569l-2.717 1.735a.7.7 0 0 1-.183.083zm-.34 0v1.78a.7.7 0 0 1-.218-.09l-2.717-1.736a7.3 7.3 0 0 1-1.685-1.487q1.114.264 4.057.968c.06.28.28.502.563.566m4.027-7.75a.76.76 0 0 0-.423-.021l-2.998-5.447q3.411.076 5.731 1.301zm.287.18 2.318-4.179a.67.67 0 0 1 .27.577l-.347 5.538a7.1 7.1 0 0 1-.525 2.268l-1.736-3.152a.73.73 0 0 0 .02-1.052M12 8.05a.41.41 0 0 0-.406.401v1.465L9.429 11.25l.232.5 1.933-.633v1.466l-.542.4v.4l.948-.268.947.267v-.4l-.542-.4v-1.466l1.9.668.265-.534-2.165-1.334V8.452a.413.413 0 0 0-.405-.4"/></svg>
